flaticon/emoticons/kiss.svg

<svg xmlns="http://www.w3.org/2000/svg" width="32" height="32" viewBox="0 0 24 24">
    <path d="M7.902344 11.492188C7.679688 11.480469 7.484375 11.648438 7.46875 11.871094 7.457031 12.09375 7.625 12.289062 7.851562 12.304688 8.386719 12.335938 8.921875 12.617188 9.316406 13.066406 9.488281 13.261719 9.625 13.476562 9.722656 13.699219 9.390625 13.539062 9.023438 13.441406 8.644531 13.414062 7.886719 13.363281 7.152344 13.617188 6.582031 14.121094 6.414062 14.269531 6.398438 14.527344 6.546875 14.695312 6.695312 14.863281 6.949219 14.878906 7.121094 14.730469 7.527344 14.371094 8.050781 14.1875 8.59375 14.226562 9.132812 14.261719 9.632812 14.503906 9.988281 14.914062 10.070312 15.003906 10.179688 15.050781 10.296875 15.050781 10.339844 15.050781 10.382812 15.042969 10.425781 15.03125 10.582031 14.976562 10.691406 14.835938 10.703125 14.671875 10.75 13.921875 10.46875 13.140625 9.929688 12.53125 9.390625 11.917969 8.652344 11.539062 7.902344 11.492188zM14.75 13.703125C14.847656 13.476562 14.984375 13.261719 15.15625 13.066406 15.550781 12.613281 16.085938 12.335938 16.621094 12.300781 16.847656 12.289062 17.015625 12.09375 17.003906 11.871094 16.988281 11.644531 16.789062 11.480469 16.570312 11.492188 15.820312 11.539062 15.082031 11.917969 14.542969 12.527344 14.003906 13.140625 13.722656 13.921875 13.769531 14.671875 13.78125 14.832031 13.890625 14.976562 14.046875 15.027344 14.089844 15.042969 14.132812 15.050781 14.175781 15.050781 14.292969 15.050781 14.40625 15.003906 14.484375 14.914062 15.222656 14.070312 16.511719 13.988281 17.351562 14.730469 17.523438 14.878906 17.777344 14.863281 17.925781 14.695312 18.074219 14.523438 18.058594 14.269531 17.890625 14.121094 17 13.335938 15.753906 13.210938 14.75 13.703125zM12.804688 15.863281C12.390625 15.863281 12 16.046875 11.738281 16.367188 11.59375 16.542969 11.617188 16.796875 11.792969 16.941406 11.964844 17.085938 12.222656 17.058594 12.363281 16.886719 12.472656 16.753906 12.636719 16.679688 12.804688 16.679688 13.121094 16.679688 13.378906 16.933594 13.378906 17.25 13.378906 17.566406 13.121094 17.824219 12.804688 17.824219 12.671875 17.824219 12.546875 17.78125 12.441406 17.695312 12.269531 17.550781 12.011719 17.574219 11.871094 17.746094 11.726562 17.921875 11.75 18.175781 11.925781 18.320312 12.078125 18.445312 12.257812 18.535156 12.445312 18.585938 12.484375 18.613281 12.519531 18.644531 12.546875 18.679688 12.742188 18.929688 12.695312 19.289062 12.445312 19.484375 12.199219 19.679688 11.835938 19.632812 11.640625 19.386719 11.558594 19.277344 11.515625 19.152344 11.519531 19.015625 11.527344 18.792969 11.351562 18.605469 11.125 18.597656 11.121094 18.597656 11.117188 18.597656 11.113281 18.597656 10.894531 18.597656 10.714844 18.773438 10.707031 18.992188 10.699219 19.316406 10.800781 19.632812 11 19.886719 11.273438 20.234375 11.683594 20.417969 12.09375 20.417969 12.394531 20.417969 12.695312 20.324219 12.945312 20.128906 13.445312 19.738281 13.597656 19.074219 13.375 18.515625 13.855469 18.296875 14.191406 17.8125 14.191406 17.25 14.191406 16.488281 13.570312 15.863281 12.804688 15.863281zM12.804688 15.863281"/>
    <path d="M 23.753906 17.757812 C 22.902344 15.84375 22.632812 12.222656 22.546875 10.230469 C 22.46875 8.351562 21.910156 6.585938 20.929688 5.125 C 19.175781 2.515625 17.230469 1.449219 15.921875 0.875 C 13.25 -0.292969 10.191406 -0.292969 7.523438 0.875 C 5.980469 1.550781 4.21875 2.53125 2.828125 4.707031 C 1.894531 6.164062 1.382812 7.921875 1.34375 9.785156 C 1.300781 11.929688 1.101562 15.824219 0.234375 17.828125 C -0.0390625 18.46875 0.25 19.214844 0.882812 19.496094 C 1.246094 19.65625 1.945312 19.753906 2.816406 19.859375 C 2.875 19.867188 2.925781 19.875 2.976562 19.882812 L 2.976562 20.339844 C 2.976562 21.421875 3.929688 22.371094 5.019531 22.371094 L 6.15625 22.371094 L 6.15625 23.0625 C 6.15625 23.578125 6.578125 24 7.09375 24 L 16.609375 24 C 17.125 24 17.546875 23.578125 17.546875 23.0625 L 17.546875 22.371094 L 18.769531 22.371094 C 19.871094 22.371094 20.875 21.402344 20.875 20.339844 L 20.875 19.867188 C 21.097656 19.832031 21.324219 19.796875 21.550781 19.765625 C 22.140625 19.683594 22.695312 19.605469 23.058594 19.464844 C 23.386719 19.335938 23.636719 19.089844 23.769531 18.765625 C 23.90625 18.441406 23.898438 18.082031 23.753906 17.757812 Z M 16.734375 23.0625 C 16.734375 23.128906 16.679688 23.1875 16.609375 23.1875 L 7.09375 23.1875 C 7.027344 23.1875 6.972656 23.128906 6.972656 23.0625 L 6.972656 22.371094 L 16.734375 22.371094 Z M 20.0625 20.339844 C 20.0625 20.953125 19.421875 21.558594 18.765625 21.558594 L 5.019531 21.558594 C 4.386719 21.558594 3.792969 20.964844 3.792969 20.339844 L 3.792969 11.367188 C 5.433594 11.253906 11.675781 10.632812 14.292969 7.671875 C 14.886719 8.769531 16.308594 11.054688 18.183594 11.644531 C 18.820312 11.84375 19.449219 11.835938 20.0625 11.621094 Z M 23.019531 18.457031 C 22.972656 18.570312 22.878906 18.660156 22.761719 18.707031 C 22.492188 18.8125 21.953125 18.886719 21.4375 18.960938 C 21.25 18.984375 21.0625 19.011719 20.875 19.042969 L 20.875 10.984375 C 20.875 10.835938 20.796875 10.703125 20.671875 10.628906 C 20.542969 10.558594 20.386719 10.558594 20.261719 10.632812 C 19.660156 10.992188 19.058594 11.066406 18.429688 10.871094 C 16.335938 10.210938 14.753906 6.78125 14.738281 6.746094 C 14.675781 6.613281 14.546875 6.523438 14.402344 6.511719 C 14.257812 6.5 14.113281 6.566406 14.03125 6.6875 C 11.675781 10.191406 3.449219 10.574219 3.367188 10.578125 C 3.148438 10.585938 2.976562 10.765625 2.976562 10.984375 L 2.976562 19.0625 C 2.957031 19.058594 2.9375 19.058594 2.917969 19.054688 C 2.351562 18.984375 1.496094 18.878906 1.214844 18.753906 C 0.984375 18.652344 0.882812 18.386719 0.984375 18.152344 C 1.90625 16.019531 2.113281 12.003906 2.160156 9.800781 C 2.191406 8.085938 2.660156 6.476562 3.511719 5.144531 C 4.785156 3.15625 6.417969 2.246094 7.847656 1.621094 C 10.308594 0.542969 13.132812 0.542969 15.59375 1.621094 C 16.8125 2.152344 18.617188 3.144531 20.253906 5.578125 C 21.148438 6.917969 21.664062 8.535156 21.734375 10.265625 C 21.839844 12.765625 22.148438 16.152344 23.011719 18.089844 C 23.0625 18.207031 23.066406 18.339844 23.019531 18.457031 Z M 23.019531 18.457031"/>
</svg>

<svg xmlns="http://www.w3.org/2000/svg" width="32" height="32" viewBox="0 0 24 24">
    <path d="M7.902 11.492a.412.412 0 0 0-.433.38.412.412 0 0 0 .383.433c.535.03 1.07.312 1.464.761.172.196.309.41.407.633a2.98 2.98 0 0 0-1.078-.285 2.816 2.816 0 0 0-2.063.707.407.407 0 0 0 .54.61c.405-.36.929-.543 1.472-.504.539.035 1.039.277 1.394.687a.412.412 0 0 0 .438.117.413.413 0 0 0 .277-.36c.047-.75-.234-1.53-.773-2.14-.54-.613-1.278-.992-2.028-1.039zm0 0M14.75 13.703a2.41 2.41 0 0 1 .406-.637c.395-.453.93-.73 1.465-.765a.407.407 0 0 0 .383-.43.412.412 0 0 0-.434-.379c-.75.047-1.488.426-2.027 1.035-.54.614-.82 1.395-.773 2.145.011.16.12.305.277.355a.406.406 0 0 0 .438-.113 2.03 2.03 0 0 1 2.867-.184.407.407 0 0 0 .539-.609 2.852 2.852 0 0 0-3.141-.418zm0 0M12.805 15.863c-.414 0-.805.184-1.067.504a.405.405 0 0 0 .055.574c.172.145.43.118.57-.054a.573.573 0 1 1 .078.808.405.405 0 1 0-.516.625c.153.125.333.215.52.266.04.027.075.059.102.094.195.25.148.61-.102.804a.576.576 0 0 1-.804-.097.58.58 0 0 1-.121-.371.406.406 0 0 0-.395-.418h-.012a.409.409 0 0 0-.406.394c-.008.324.094.64.293.895a1.393 1.393 0 0 0 1.945.242c.5-.39.653-1.055.43-1.613.48-.22.816-.703.816-1.266a1.39 1.39 0 0 0-1.386-1.387zm0 0"/>
    <path d="M23.754 17.758c-.852-1.914-1.121-5.535-1.207-7.528-.078-1.878-.637-3.644-1.617-5.105-1.754-2.61-3.7-3.676-5.008-4.25a10.503 10.503 0 0 0-8.399 0C5.98 1.551 4.22 2.531 2.828 4.707c-.933 1.457-1.445 3.215-1.484 5.078-.043 2.145-.242 6.04-1.11 8.043-.273.64.016 1.387.649 1.668.363.16 1.062.258 1.933.363l.16.024v.457c0 1.082.954 2.031 2.044 2.031h1.136v.692a.94.94 0 0 0 .938.937h9.515a.94.94 0 0 0 .938-.938v-.69h1.223c1.101 0 2.105-.97 2.105-2.032v-.473c.223-.035.45-.07.676-.101.59-.082 1.144-.16 1.508-.301.328-.13.578-.375.71-.7a1.257 1.257 0 0 0-.015-1.007zm-7.02 5.305a.126.126 0 0 1-.125.125H7.094a.125.125 0 0 1-.121-.125v-.692h9.761zm3.328-2.723c0 .613-.64 1.219-1.296 1.219H5.02c-.633 0-1.227-.594-1.227-1.22v-8.972c1.64-.113 7.883-.734 10.5-3.695.594 1.098 2.016 3.383 3.89 3.973.637.199 1.266.19 1.88-.024zm2.958-1.883a.463.463 0 0 1-.258.25c-.27.105-.809.18-1.325.254-.187.023-.375.05-.562.082v-8.059a.412.412 0 0 0-.203-.355.415.415 0 0 0-.41.004c-.602.36-1.203.433-1.832.238-2.094-.66-3.676-4.09-3.692-4.125a.41.41 0 0 0-.707-.059c-2.355 3.504-10.582 3.887-10.664 3.891a.405.405 0 0 0-.39.406v8.079c-.02-.004-.04-.004-.059-.008-.566-.07-1.422-.176-1.703-.301a.454.454 0 0 1-.23-.602c.921-2.132 1.128-6.148 1.175-8.351.031-1.715.5-3.324 1.352-4.656C4.785 3.156 6.418 2.246 7.848 1.62a9.68 9.68 0 0 1 7.746 0c1.219.531 3.023 1.524 4.66 3.957.894 1.34 1.41 2.957 1.48 4.688.106 2.5.414 5.886 1.278 7.824.05.117.054.25.008.367zm0 0"/>
</svg>
